<?xml version="1.0" encoding="UTF-8"?>
<map version="1.10" tiledversion="1.12.1" orientation="orthogonal" renderorder="right-down" width="64" height="48" tilewidth="16" tileheight="16" infinite="0" nextlayerid="5" nextobjectid="1">
 <editorsettings>
  <export target="Castle.json" format="json"/>
 </editorsettings>
 <tileset firstgid="1" name="spritesheet_maps" tilewidth="16" tileheight="16" spacing="1" tilecount="1767" columns="57">
  <image source="spritesheet_maps.png" width="968" height="526"/>
  <tile id="28">
   <properties>
    <property name="collides" type="bool" value="true"/>
   </properties>
  </tile>
  <tile id="29">
   <properties>
    <property name="collides" type="bool" value="true"/>
   </properties>
  </tile>
  <tile id="30">
   <properties>
    <property name="collides" type="bool" value="true"/>
   </properties>
  </tile>
  <tile id="71">
   <properties>
    <property name="collides" type="bool" value="true"/>
   </properties>
  </tile>
  <tile id="72">
   <properties>
    <property name="collides" type="bool" value="true"/>
   </properties>
  </tile>
  <tile id="128">
   <properties>
    <property name="collides" type="bool" value="true"/>
   </properties>
  </tile>
  <tile id="129">
   <properties>
    <property name="collides" type="bool" value="true"/>
   </properties>
  </tile>
  <tile id="133">
   <properties>
    <property name="collides" type="bool" value="true"/>
   </properties>
  </tile>
  <tile id="134">
   <properties>
    <property name="collides" type="bool" value="true"/>
   </properties>
  </tile>
  <tile id="135">
   <properties>
    <property name="collides" type="bool" value="true"/>
   </properties>
  </tile>
  <tile id="136">
   <properties>
    <property name="collides" type="bool" value="true"/>
   </properties>
  </tile>
  <tile id="137">
   <properties>
    <property name="collides" type="bool" value="true"/>
   </properties>
  </tile>
  <tile id="138">
   <properties>
    <property name="collides" type="bool" value="true"/>
   </properties>
  </tile>
  <tile id="173">
   <properties>
    <property name="collides" type="bool" value="true"/>
   </properties>
  </tile>
  <tile id="174">
   <properties>
    <property name="collides" type="bool" value="true"/>
   </properties>
  </tile>
  <tile id="175">
   <properties>
    <property name="collides" type="bool" value="true"/>
   </properties>
  </tile>
  <tile id="186">
   <properties>
    <property name="collides" type="bool" value="true"/>
   </properties>
  </tile>
  <tile id="199">
   <properties>
    <property name="collides" type="bool" value="true"/>
   </properties>
  </tile>
  <tile id="200">
   <properties>
    <property name="collides" type="bool" value="true"/>
   </properties>
  </tile>
  <tile id="201">
   <properties>
    <property name="collides" type="bool" value="true"/>
   </properties>
  </tile>
  <tile id="230">
   <properties>
    <property name="collides" type="bool" value="true"/>
   </properties>
  </tile>
  <tile id="231">
   <properties>
    <property name="collides" type="bool" value="true"/>
   </properties>
  </tile>
  <tile id="232">
   <properties>
    <property name="collides" type="bool" value="true"/>
   </properties>
  </tile>
  <tile id="238">
   <properties>
    <property name="collides" type="bool" value="true"/>
   </properties>
  </tile>
  <tile id="239">
   <properties>
    <property name="collides" type="bool" value="true"/>
   </properties>
  </tile>
  <tile id="240">
   <properties>
    <property name="collides" type="bool" value="true"/>
   </properties>
  </tile>
  <tile id="241">
   <properties>
    <property name="collides" type="bool" value="true"/>
   </properties>
  </tile>
  <tile id="243">
   <properties>
    <property name="collides" type="bool" value="true"/>
   </properties>
  </tile>
  <tile id="247">
   <properties>
    <property name="collides" type="bool" value="true"/>
   </properties>
  </tile>
  <tile id="248">
   <properties>
    <property name="collides" type="bool" value="true"/>
   </properties>
  </tile>
  <tile id="249">
   <properties>
    <property name="collides" type="bool" value="true"/>
   </properties>
  </tile>
  <tile id="250">
   <properties>
    <property name="collides" type="bool" value="true"/>
   </properties>
  </tile>
  <tile id="256">
   <properties>
    <property name="collides" type="bool" value="true"/>
   </properties>
  </tile>
  <tile id="257">
   <properties>
    <property name="collides" type="bool" value="true"/>
   </properties>
  </tile>
  <tile id="258">
   <properties>
    <property name="collides" type="bool" value="true"/>
   </properties>
  </tile>
  <tile id="287">
   <properties>
    <property name="collides" type="bool" value="true"/>
   </properties>
  </tile>
  <tile id="288">
   <properties>
    <property name="collides" type="bool" value="true"/>
   </properties>
  </tile>
  <tile id="289">
   <properties>
    <property name="collides" type="bool" value="true"/>
   </properties>
  </tile>
  <tile id="295">
   <properties>
    <property name="collides" type="bool" value="true"/>
   </properties>
  </tile>
  <tile id="296">
   <properties>
    <property name="collides" type="bool" value="true"/>
   </properties>
  </tile>
  <tile id="297">
   <properties>
    <property name="collides" type="bool" value="true"/>
   </properties>
  </tile>
  <tile id="298">
   <properties>
    <property name="collides" type="bool" value="true"/>
   </properties>
  </tile>
  <tile id="352">
   <properties>
    <property name="collides" type="bool" value="true"/>
   </properties>
  </tile>
  <tile id="353">
   <properties>
    <property name="collides" type="bool" value="true"/>
   </properties>
  </tile>
  <tile id="354">
   <properties>
    <property name="collides" type="bool" value="true"/>
   </properties>
  </tile>
  <tile id="355">
   <properties>
    <property name="collides" type="bool" value="true"/>
   </properties>
  </tile>
  <tile id="356">
   <properties>
    <property name="collides" type="bool" value="true"/>
   </properties>
  </tile>
  <tile id="357">
   <properties>
    <property name="collides" type="bool" value="true"/>
   </properties>
  </tile>
  <tile id="358">
   <properties>
    <property name="collides" type="bool" value="true"/>
   </properties>
  </tile>
  <tile id="359">
   <properties>
    <property name="collides" type="bool" value="true"/>
   </properties>
  </tile>
  <tile id="361">
   <properties>
    <property name="collides" type="bool" value="true"/>
   </properties>
  </tile>
  <tile id="362">
   <properties>
    <property name="collides" type="bool" value="true"/>
   </properties>
  </tile>
  <tile id="363">
   <properties>
    <property name="collides" type="bool" value="true"/>
   </properties>
  </tile>
  <tile id="364">
   <properties>
    <property name="collides" type="bool" value="true"/>
   </properties>
  </tile>
  <tile id="412">
   <properties>
    <property name="collides" type="bool" value="true"/>
   </properties>
  </tile>
  <tile id="413">
   <properties>
    <property name="collides" type="bool" value="true"/>
   </properties>
  </tile>
  <tile id="414">
   <properties>
    <property name="collides" type="bool" value="true"/>
   </properties>
  </tile>
  <tile id="613">
   <properties>
    <property name="collides" type="bool" value="true"/>
   </properties>
  </tile>
  <tile id="668">
   <properties>
    <property name="collides" type="bool" value="true"/>
   </properties>
  </tile>
  <tile id="669">
   <properties>
    <property name="collides" type="bool" value="true"/>
   </properties>
  </tile>
  <tile id="670">
   <properties>
    <property name="collides" type="bool" value="true"/>
   </properties>
  </tile>
  <tile id="729">
   <properties>
    <property name="collides" type="bool" value="true"/>
   </properties>
  </tile>
  <tile id="730">
   <properties>
    <property name="collides" type="bool" value="true"/>
   </properties>
  </tile>
  <tile id="731">
   <properties>
    <property name="collides" type="bool" value="true"/>
   </properties>
  </tile>
  <tile id="732">
   <properties>
    <property name="collides" type="bool" value="true"/>
   </properties>
  </tile>
  <tile id="733">
   <properties>
    <property name="collides" type="bool" value="true"/>
   </properties>
  </tile>
  <tile id="734">
   <properties>
    <property name="collides" type="bool" value="true"/>
   </properties>
  </tile>
  <tile id="886">
   <properties>
    <property name="collides" type="bool" value="true"/>
   </properties>
  </tile>
  <tile id="887">
   <properties>
    <property name="collides" type="bool" value="true"/>
   </properties>
  </tile>
  <tile id="888">
   <properties>
    <property name="collides" type="bool" value="true"/>
   </properties>
  </tile>
  <tile id="943">
   <properties>
    <property name="collides" type="bool" value="true"/>
   </properties>
  </tile>
  <tile id="944">
   <properties>
    <property name="collides" type="bool" value="true"/>
   </properties>
  </tile>
  <tile id="945">
   <properties>
    <property name="collides" type="bool" value="true"/>
   </properties>
  </tile>
  <tile id="1055">
   <properties>
    <property name="spawns" type="bool" value="true"/>
   </properties>
  </tile>
  <tile id="1056">
   <properties>
    <property name="spawns" type="bool" value="true"/>
   </properties>
  </tile>
  <tile id="1062">
   <properties>
    <property name="spawns" type="bool" value="true"/>
   </properties>
  </tile>
  <tile id="1063">
   <properties>
    <property name="spawns" type="bool" value="true"/>
   </properties>
  </tile>
  <tile id="1168">
   <properties>
    <property name="collides" type="bool" value="true"/>
   </properties>
  </tile>
  <tile id="1400">
   <properties>
    <property name="collides" type="bool" value="true"/>
   </properties>
  </tile>
 </tileset>
 <layer id="2" name="collidable1" width="64" height="48">
  <data encoding="csv">
0,0,0,0,0,0,0,0,0,0,0,0,0,0,0,0,0,0,0,0,0,0,0,0,0,0,0,0,0,0,0,0,0,0,0,0,0,0,0,0,0,0,0,0,0,0,0,0,0,0,944,945,945,945,946,0,0,0,0,0,0,0,0,0,
0,0,0,0,0,0,0,0,0,0,944,945,945,945,945,945,945,945,945,945,946,0,0,0,0,0,0,0,0,0,0,0,0,0,0,0,0,0,0,0,0,0,0,0,0,0,0,0,0,0,887,888,888,888,889,0,0,0,0,0,0,0,0,0,
0,0,0,0,0,0,0,0,0,0,887,888,888,888,888,888,888,888,888,888,889,945,945,945,945,945,945,945,945,945,945,945,945,945,945,945,945,945,945,945,945,945,945,945,945,945,945,945,945,946,887,888,888,888,889,1401,0,0,0,0,0,0,0,0,
0,0,0,0,0,0,0,0,0,1401,887,888,888,888,888,888,888,888,888,888,889,888,888,888,888,888,888,888,888,888,888,888,888,888,888,888,888,888,888,888,888,888,888,888,888,888,888,888,888,889,0,0,0,0,0,1401,0,0,0,0,0,0,0,0,
0,0,0,0,0,0,0,0,0,1401,0,0,0,0,0,0,0,0,0,0,0,0,0,0,0,0,0,0,0,0,0,0,0,0,0,0,0,0,0,0,0,0,0,0,0,0,0,0,0,0,0,0,0,0,0,1401,0,0,0,0,0,0,0,0,
0,0,0,0,0,0,0,0,0,1401,0,0,0,0,0,0,0,0,0,0,0,1401,1401,1401,1401,1401,1401,1401,1401,1401,1401,1401,1401,1401,1401,1401,1401,1401,1401,1401,1401,1401,1401,0,1401,1401,1401,1401,1401,1401,0,0,1401,1401,1401,1401,0,0,0,0,0,0,0,0,
0,0,0,0,0,0,0,0,0,1401,0,0,0,0,0,0,0,0,0,0,0,1401,0,0,944,945,945,945,945,945,945,945,945,945,945,945,945,945,945,946,0,0,1401,0,1401,0,0,0,944,946,0,0,944,945,946,0,0,0,0,0,0,0,0,0,
0,0,0,0,0,0,0,0,0,1401,0,0,0,0,0,0,0,0,0,0,0,1401,0,0,887,888,888,888,888,888,888,888,888,888,888,888,888,888,888,889,0,0,1401,0,1401,0,0,0,887,889,0,0,887,888,889,0,0,0,0,0,0,0,0,0,
0,0,0,0,0,0,0,0,0,1401,0,0,0,0,0,0,0,0,0,0,0,1401,0,0,887,888,888,888,888,888,888,888,888,888,888,888,888,888,888,889,0,0,1401,0,1401,0,0,1401,887,889,0,0,887,888,889,1401,0,0,0,0,0,0,0,0,
0,0,0,0,0,0,0,0,0,1401,0,0,0,0,0,0,0,0,0,0,0,1401,0,0,887,888,888,888,888,888,888,888,888,888,888,888,888,888,888,889,0,0,1401,0,944,946,0,1401,0,0,0,0,0,0,0,1401,0,0,0,0,0,0,0,0,
0,0,0,0,0,0,0,0,0,1401,0,0,0,0,0,0,0,0,0,0,0,1401,0,1401,887,888,888,888,888,888,888,888,888,888,888,888,888,888,888,889,1401,0,1401,0,887,889,944,946,0,0,0,0,0,0,0,1401,0,0,0,0,0,0,0,0,
0,0,0,0,0,0,0,0,0,1401,1401,1401,1401,0,0,1401,1401,1401,1401,1401,1401,1401,0,1401,0,0,0,0,0,0,0,0,0,0,0,0,0,0,0,0,1401,0,1401,0,887,889,887,889,0,0,0,0,0,0,0,1401,0,0,0,0,0,0,0,0,
0,0,0,0,0,0,944,945,945,946,0,0,946,0,0,944,0,0,0,0,0,0,0,1401,0,0,0,0,0,0,0,0,0,0,0,0,0,0,0,0,1401,0,1401,0,0,0,887,889,0,0,0,0,0,0,0,1401,0,0,0,0,0,0,0,0,
0,0,0,0,0,0,887,888,888,889,944,946,889,0,0,887,0,0,0,0,0,0,0,1401,0,0,0,0,0,0,0,0,0,0,0,0,0,0,0,0,1401,0,1401,0,0,0,0,0,0,0,0,0,0,0,0,1401,0,0,0,0,0,0,0,0,
0,0,0,0,0,1401,887,888,888,889,887,889,889,0,0,887,1401,0,0,0,0,0,0,1401,0,0,0,0,0,0,0,0,0,0,0,0,0,0,0,0,1401,0,1401,0,0,0,0,0,0,0,0,0,0,0,0,1401,0,0,0,0,0,0,0,0,
0,0,0,0,0,1401,0,0,0,0,887,889,0,0,0,0,1401,0,944,945,945,945,946,1401,0,0,0,0,0,0,0,0,0,0,0,0,0,0,0,0,1401,0,1401,0,0,0,1401,1401,0,0,0,0,0,0,0,1401,0,0,0,0,0,0,0,0,
0,0,0,0,0,1401,0,0,0,0,0,0,0,0,0,0,944,946,887,888,888,888,889,1401,0,0,0,0,0,0,0,0,0,0,0,0,0,0,0,0,1401,0,1401,1401,1401,1401,1401,1401,0,0,0,0,0,0,0,1401,0,0,0,0,0,0,0,0,
0,0,0,0,0,1401,0,0,0,0,0,0,0,0,0,0,887,889,887,888,888,888,889,1401,0,0,0,0,0,0,0,0,0,0,0,0,0,0,0,0,1401,0,0,0,0,0,0,1401,0,0,0,0,0,0,0,1401,0,0,0,0,0,0,0,0,
0,0,0,0,0,1401,0,0,0,0,1401,1401,0,0,0,0,887,889,0,0,0,0,0,1401,0,0,0,0,0,0,0,0,0,0,0,0,0,0,0,0,1401,0,0,0,0,0,0,1401,1401,0,0,0,0,1401,1401,1401,0,0,0,0,0,0,0,0,
0,0,0,0,0,1401,0,0,0,0,1401,1401,0,0,0,0,0,0,0,0,0,0,0,1401,0,0,0,0,0,0,0,0,0,0,0,0,0,0,0,0,1401,0,944,945,945,945,945,945,946,0,0,0,0,944,945,945,945,945,945,946,0,0,0,0,
0,0,0,0,0,1401,0,0,0,0,1401,1401,0,0,0,0,0,0,0,0,0,0,0,1401,0,0,0,0,0,0,0,0,0,0,0,0,0,0,0,0,1401,0,887,888,888,888,888,888,889,0,0,0,0,887,888,888,888,888,888,889,0,0,0,0,
0,0,0,0,0,1401,0,0,0,0,1401,1401,0,0,0,0,1401,1401,0,0,0,0,0,1401,0,0,0,0,0,0,0,0,0,0,0,0,0,0,0,0,944,946,887,888,888,888,888,888,889,0,0,0,0,887,888,888,888,888,888,889,1401,0,0,0,
0,0,0,0,0,1401,0,0,0,0,1401,1401,0,0,0,0,1401,1401,0,0,0,0,0,1401,0,0,0,0,0,0,0,0,0,0,0,0,0,0,0,0,887,889,0,0,0,0,0,0,0,0,0,0,0,0,0,0,0,0,0,0,1401,0,0,0,
0,0,0,0,0,1401,0,0,0,0,1401,1401,0,0,0,0,1401,1401,0,0,0,0,0,1401,0,0,0,0,0,0,0,0,0,0,0,0,0,0,0,0,887,889,0,0,0,0,0,0,0,0,0,0,0,0,0,0,0,0,0,0,1401,0,0,0,
0,0,0,0,0,1401,0,0,0,0,1401,1401,0,0,0,0,1401,1401,0,0,0,0,0,1401,0,0,0,0,0,0,0,0,0,0,0,0,0,0,0,0,0,0,0,0,0,0,0,0,0,0,0,0,0,0,0,0,0,0,0,0,1401,0,0,0,
0,0,0,0,0,1401,0,0,0,0,1401,1401,0,0,0,0,1401,1401,0,0,0,0,0,1401,0,0,0,0,0,0,0,0,0,0,0,0,0,0,0,0,0,0,0,0,0,0,0,0,0,0,0,0,0,0,0,0,0,0,0,0,1401,0,0,0,
0,0,0,0,0,1401,0,0,0,0,944,946,0,0,0,0,1401,1401,0,0,0,0,0,1401,0,0,0,0,0,0,0,0,0,0,0,0,0,0,0,0,0,0,0,0,0,0,0,0,0,0,0,0,0,0,0,0,0,0,0,0,1401,0,0,0,
0,0,0,0,0,1401,0,0,0,0,887,889,0,0,0,0,944,946,0,0,0,0,0,1401,0,0,0,0,0,0,0,0,0,0,0,0,0,0,0,0,1401,1401,0,0,0,0,0,0,0,0,0,0,0,0,0,0,0,0,0,0,1401,0,0,0,
0,0,0,0,0,1401,0,0,0,0,887,889,0,0,0,0,887,889,0,0,0,0,0,1401,0,0,0,0,0,0,0,0,0,0,0,0,0,0,0,0,1401,1401,0,0,0,0,0,0,0,0,0,0,0,0,0,0,0,0,0,0,1401,0,0,0,
0,0,0,0,0,1401,0,0,0,0,0,0,0,0,0,0,887,889,0,0,0,0,0,1401,0,0,0,0,0,0,0,0,0,0,0,0,0,0,0,0,1401,1401,1401,1401,1401,1401,1401,1401,1401,0,0,0,0,1401,1401,1401,1401,1401,1401,1401,1401,0,0,0,
0,0,0,0,0,1401,0,0,0,0,0,0,0,0,0,0,0,0,0,0,0,0,0,1401,0,0,0,0,0,0,0,0,0,0,0,0,0,0,0,0,1401,0,0,0,0,0,944,945,946,0,0,0,0,944,946,0,0,944,945,945,945,945,946,0,
0,0,0,0,0,1401,0,0,0,0,1401,1401,0,0,0,0,0,0,0,0,0,0,0,1401,0,0,0,0,0,0,0,0,0,0,0,0,0,0,0,0,1401,0,0,0,0,0,887,888,889,0,0,0,0,887,889,944,946,887,888,888,888,888,889,0,
0,0,0,0,0,1401,1401,1401,1401,1401,1401,1401,0,0,0,0,1401,1401,0,0,0,0,0,1401,0,0,0,0,0,0,0,0,0,0,0,0,0,0,0,0,1401,0,0,0,0,1401,887,888,889,0,0,0,0,887,889,887,889,887,888,888,888,888,889,1401,
0,0,0,0,0,0,0,0,0,0,0,1401,1401,0,0,1401,1401,1401,1401,1401,1401,1401,1401,1401,0,0,0,0,0,0,0,0,0,0,0,0,0,0,0,0,1401,0,0,0,0,1401,0,0,0,0,0,0,0,0,0,887,889,0,0,0,0,0,0,1401,
0,944,945,945,945,945,945,945,945,945,945,945,946,0,0,944,945,945,945,945,945,946,1401,1401,0,0,0,0,0,0,0,0,0,0,0,0,0,0,0,0,1401,0,0,0,0,1401,0,0,0,0,0,0,0,0,0,0,0,0,0,0,0,0,0,1401,
0,887,888,888,888,888,888,888,888,888,888,888,889,0,0,887,888,888,888,888,888,889,944,946,0,0,0,0,0,0,0,0,0,0,0,0,0,0,0,0,1401,0,0,0,0,1401,0,0,0,0,0,0,0,0,0,0,0,0,0,0,0,0,0,1401,
1401,887,888,888,888,888,888,888,888,888,888,888,889,0,0,887,888,888,888,888,888,889,887,889,0,0,0,0,0,0,0,0,0,0,0,0,0,0,0,0,1401,0,0,0,0,1401,0,0,0,0,0,0,0,0,0,1401,1401,0,0,0,0,0,0,1401,
1401,0,0,0,0,0,0,0,0,0,0,0,0,0,0,0,0,0,0,0,0,0,887,889,0,0,0,0,0,0,0,0,0,0,0,0,0,0,0,0,1401,0,0,0,0,1401,0,0,0,0,0,0,0,0,0,944,946,0,0,0,0,0,0,1401,
1401,0,0,0,0,0,0,0,0,0,0,0,0,0,0,0,0,0,0,0,0,0,0,0,0,0,0,0,0,0,0,0,0,0,0,0,0,0,0,0,1401,0,0,0,0,1401,0,0,0,0,0,0,0,0,0,887,889,0,0,0,0,0,0,1401,
1401,0,0,1401,1401,1401,1401,1401,1401,1401,1401,1401,1401,1401,1401,1401,1401,1401,1401,1401,0,0,0,0,0,0,0,0,0,0,0,0,0,0,0,0,0,0,0,0,1401,0,0,0,0,1401,0,0,0,0,0,0,0,0,0,887,889,0,0,0,0,0,0,1401,
1401,0,0,1401,0,0,0,0,0,0,0,0,0,0,0,0,0,0,0,1401,0,0,1401,1401,0,0,0,0,0,0,0,0,0,0,0,0,0,0,0,0,1401,0,0,0,0,1401,0,0,0,0,0,0,0,0,0,0,0,0,0,0,0,0,0,1401,
1401,0,0,1401,0,0,0,0,0,0,0,0,0,0,0,0,0,0,0,1401,0,0,1401,1401,0,0,0,0,0,0,0,0,0,0,0,0,0,0,0,0,1401,0,0,0,0,1401,0,0,0,0,0,0,0,0,0,0,0,0,0,0,0,0,0,1401,
1401,0,0,944,945,945,945,945,945,945,945,945,945,945,945,945,945,945,945,946,0,0,1401,1401,1401,1401,1401,1401,1401,1401,1401,1401,1401,1401,1401,1401,1401,1401,1401,1401,1401,0,0,0,0,1401,0,0,0,0,0,0,0,0,0,1401,1401,0,0,0,0,0,0,1401,
1401,0,0,887,888,888,888,888,888,888,888,888,888,888,888,888,888,888,888,889,0,0,1401,0,0,0,0,0,0,0,0,0,0,0,0,0,0,0,0,0,0,0,0,0,0,1401,1401,0,1401,1401,1401,1401,1401,1401,1401,1401,1401,1401,1401,1401,1401,1401,1401,1401,
1401,0,0,887,888,888,888,888,888,888,888,888,888,888,888,888,888,888,888,889,0,0,945,945,945,945,945,945,945,945,945,945,945,945,945,945,945,945,945,945,945,945,945,945,945,945,946,0,1401,0,0,0,0,0,0,0,0,0,0,0,0,0,0,0,
1401,0,0,0,0,0,0,0,0,0,0,0,0,0,0,0,0,0,0,0,0,0,888,888,888,888,888,888,888,888,888,888,888,888,888,888,888,888,888,888,888,888,888,888,888,888,889,0,1401,0,0,0,0,0,0,0,0,0,0,0,0,0,0,0,
1401,0,0,0,0,0,0,0,0,0,0,0,0,0,0,0,0,0,0,0,0,0,0,0,0,0,0,0,0,0,0,0,0,0,0,0,0,0,0,0,0,0,0,0,0,0,0,0,1401,0,0,0,0,0,0,0,0,0,0,0,0,0,0,0,
1401,1401,1401,1401,1401,1401,1401,1401,1401,1401,1401,1401,1401,1401,1401,1401,1401,1401,1401,1401,1401,1401,1401,1401,1401,1401,1401,1401,1401,1401,1401,1401,1401,1401,1401,1401,1401,1401,1401,1401,1401,1401,1401,1401,1401,1401,1401,1401,1401,0,0,0,0,0,0,0,0,0,0,0,0,0,0,0
</data>
 </layer>
 <layer id="1" name="decoration1" width="64" height="48">
  <data encoding="csv">
0,0,0,0,0,0,0,0,0,0,0,0,0,0,0,0,0,0,0,0,0,0,0,0,0,0,0,0,0,0,0,0,0,0,0,0,0,0,0,0,0,0,0,0,0,0,0,0,0,0,0,0,0,0,0,0,0,0,0,0,0,0,0,0,
0,0,0,0,0,0,0,0,0,0,0,0,0,0,0,0,0,0,0,0,0,0,0,0,0,0,0,0,0,0,0,0,0,0,0,0,0,0,0,0,0,0,0,0,0,0,0,0,0,0,0,0,0,0,0,0,0,0,0,0,0,0,0,0,
0,0,0,0,0,0,0,0,0,0,0,0,0,0,0,0,0,0,0,0,0,0,0,0,0,0,0,0,0,0,0,0,0,0,0,0,0,0,0,0,0,0,0,0,0,0,0,0,0,0,0,0,332,0,0,0,0,0,0,0,0,0,0,0,
0,0,0,0,0,0,0,0,0,0,0,0,0,0,0,0,0,0,0,0,0,0,0,0,0,0,0,0,0,0,0,0,0,0,0,0,0,0,0,0,0,0,0,0,0,0,0,0,0,0,1236,1237,1237,1237,1238,0,0,0,0,0,0,0,0,0,
0,0,0,0,0,0,0,0,0,0,1229,1230,1230,1230,1230,1230,1230,1230,1230,1230,1231,719,720,720,720,720,720,720,720,720,720,720,720,720,720,720,720,720,720,720,720,720,720,782,720,720,720,720,720,721,1293,1294,1351,1351,1064,0,0,0,0,0,0,0,0,0,
0,0,0,0,0,0,0,0,0,0,1286,1287,1287,1287,1287,1287,1287,1287,1287,1287,1288,0,0,0,0,0,0,0,0,0,0,0,0,0,0,0,0,0,0,0,0,0,0,778,0,0,0,0,0,0,1293,1295,0,0,0,0,0,0,0,0,0,0,0,0,
0,0,0,0,0,0,0,0,0,0,1286,1287,1287,1287,1287,1287,1287,1287,1287,1287,1288,0,0,0,0,0,0,0,0,0,0,0,0,0,0,0,0,0,0,0,0,0,0,778,0,0,0,0,0,0,1293,1295,0,0,0,0,0,0,0,0,0,0,0,0,
0,0,0,0,0,0,0,0,0,0,1286,1287,1287,1287,1287,1287,1287,1287,1287,1287,1288,0,0,0,0,0,0,0,0,0,222,0,0,222,0,0,0,0,0,0,0,0,0,778,0,0,0,0,0,0,1229,1231,0,0,0,0,0,0,0,0,0,0,0,0,
0,0,0,0,0,0,0,0,0,0,1286,1287,1287,1287,1287,1287,1287,1287,1287,1287,1288,0,0,0,0,0,0,0,0,0,279,0,0,279,0,0,0,0,0,0,0,0,0,833,0,0,0,0,0,0,1286,1288,0,0,0,0,0,0,0,0,0,0,0,0,
0,0,0,0,0,0,0,0,0,0,1286,1287,1287,1287,1287,1287,1287,1287,1287,1287,1288,0,0,0,0,0,0,0,0,0,336,0,0,336,0,0,0,0,0,0,0,0,0,1007,0,0,0,0,1229,1230,1230,1230,1230,1230,1231,0,0,0,0,0,0,0,0,0,
0,0,0,0,0,0,0,0,0,0,1343,1344,1344,1287,1287,1344,1344,1344,1344,1344,1057,0,0,0,0,0,0,0,0,0,0,0,0,0,0,0,0,0,0,0,0,0,0,1007,0,0,0,0,1286,1287,1287,1287,1287,1287,1288,0,0,0,0,0,0,0,0,0,
0,0,0,0,0,0,0,0,0,0,0,0,0,941,943,0,0,0,0,0,0,0,0,0,1229,1056,1230,1230,1230,1230,1230,1230,1230,1230,1230,1230,1230,1230,1057,1231,0,0,0,1007,0,0,0,0,1286,1287,1287,1287,1287,1287,1288,0,0,0,0,0,0,0,0,0,
0,0,0,0,0,0,0,0,0,0,0,0,0,884,886,0,0,0,0,0,0,0,0,0,1286,1287,1287,1287,1287,1287,1287,1287,1287,1287,1287,1287,1287,1287,1287,1288,0,0,0,1236,1237,1238,0,0,1286,1287,1287,1287,1287,1287,1288,0,0,0,0,0,0,0,0,0,
0,0,0,0,0,0,0,159,159,0,0,0,0,884,886,0,0,0,0,0,0,0,0,0,1286,1287,1287,1287,1287,1287,1287,1287,1287,1287,1287,1287,1287,1287,1287,1288,0,0,0,1293,1294,1294,1238,1230,1287,1287,1287,1287,1287,1287,1288,0,0,0,0,0,0,0,0,0,
0,0,0,0,0,0,0,216,216,0,0,0,0,884,886,0,0,0,0,0,0,0,0,0,1286,1287,1287,1287,1287,1287,1287,1287,1287,1287,1287,1287,1287,1287,1287,1288,0,0,0,1293,1294,1294,1352,1344,1287,1287,1287,1287,1287,1287,1288,0,0,0,0,0,0,0,0,0,
0,0,0,0,0,0,1236,1237,1237,1238,0,0,1229,1287,1287,1231,0,0,0,0,0,0,0,0,1286,1287,1287,1287,1287,1287,1287,1287,1287,1287,1287,1287,1287,1287,1287,1288,0,0,0,1350,1351,1352,0,0,1286,1287,1287,1287,1287,1287,1288,0,0,0,0,0,0,0,0,0,
0,0,0,0,0,0,1293,1294,1294,1294,1238,1230,1287,1287,1287,1288,0,0,0,0,0,0,0,0,1286,1287,1287,1287,1287,1287,1287,1287,1287,1287,1287,1287,1287,1287,1287,1288,0,0,0,0,0,0,0,0,1286,1287,1287,1287,1287,1287,1288,0,0,0,0,0,0,0,0,0,
0,0,0,0,0,0,1293,1294,1294,1294,1352,1344,1287,1287,1287,1288,0,0,0,0,0,0,0,0,1286,1287,1287,1287,1287,1287,1287,1287,1287,1287,1287,1287,1287,1287,1287,1288,0,0,0,0,0,0,0,0,1343,1287,1287,1287,1287,1344,1345,0,0,0,0,0,0,0,0,0,
0,0,0,0,0,0,1293,1294,1294,1295,0,0,1286,1287,1287,1288,0,0,1063,1237,1237,1237,1238,0,1286,1287,1287,1287,1287,1287,1287,1287,1287,1287,1287,1287,1287,1287,1287,1288,0,0,0,0,0,0,0,0,0,941,940,940,943,0,0,0,0,0,0,0,0,0,0,0,
0,0,0,0,0,0,1293,1294,1294,1295,0,0,1286,1287,1287,1287,1230,1236,1294,1294,1294,1294,1295,0,1286,1287,1287,1287,1287,1287,1287,1287,1287,1287,1287,1287,1287,1287,1287,1288,0,0,0,0,0,0,0,0,0,884,883,883,886,0,0,0,0,0,0,0,0,0,0,0,
0,0,0,0,0,0,1293,1294,1294,1295,0,0,1286,1287,1287,1287,1344,1350,1294,1294,1294,1294,1295,0,1286,1287,1287,1287,1287,1287,1287,1287,1287,1287,1287,1287,1287,1287,1287,1288,0,0,0,159,0,159,0,159,0,884,883,883,886,0,159,0,159,0,159,0,0,0,0,0,
0,0,0,0,0,0,1293,1294,1294,1295,0,0,1286,1287,1287,1288,0,0,1293,1294,1294,1294,1295,0,1286,1287,1287,1287,1287,1287,1287,1287,1287,1287,1287,1287,1287,1287,1287,1288,0,0,0,216,0,216,0,216,0,884,883,883,886,0,216,0,216,0,216,0,0,0,0,0,
0,0,0,0,0,0,1293,1294,1294,1295,0,0,1286,1287,1287,1288,0,0,1293,1294,1294,1294,1295,0,1286,1287,1287,1287,1287,1287,1287,1287,1287,1287,1287,1287,1287,1287,1287,1288,0,0,1229,1230,1230,1230,1230,1230,1230,1287,1287,1287,1287,1230,1230,1230,1230,1230,1230,1231,0,0,0,0,
0,0,0,0,0,0,1293,1294,1294,1295,0,0,1286,1287,1287,1288,0,0,1293,1294,1294,1294,1295,0,1286,1287,1287,1287,1287,1287,1287,1287,1287,1287,1287,1287,1287,1287,1287,1288,0,0,1286,1287,1287,1287,1287,1287,1287,1287,1287,1287,1287,1287,1287,1287,1287,1287,1287,1288,0,0,0,0,
0,0,0,0,0,0,1293,1294,1294,1295,0,0,1286,1287,1287,1288,0,0,1293,1294,1294,1294,1295,0,1286,1287,1287,1287,1287,1287,1287,1287,1287,1287,1287,1287,1287,1287,1287,1287,1287,1287,1287,1287,1287,1287,1287,1287,1287,1287,1287,1287,1287,1287,1287,1287,1287,1287,1287,1288,0,0,0,0,
0,0,0,0,0,0,1293,1294,1294,1295,0,0,1286,1287,1287,1288,0,0,1293,1294,1294,1294,1295,0,1286,1287,1287,1287,1287,1287,1287,1287,1287,1287,1287,1287,1287,1287,1287,1287,1287,1287,1287,1287,1287,1287,1287,1287,1287,1287,1287,1287,1287,1287,1287,1287,1287,1287,1287,1288,0,0,0,0,
0,0,0,0,0,0,1293,1294,1294,1295,0,0,1286,1287,1287,1288,0,0,1293,1294,1294,1294,1295,0,1286,1287,1287,1287,1287,1287,1287,1287,1287,1287,1287,1287,1287,1287,1287,1287,1287,1287,1287,1287,1287,1287,1287,1287,1287,1287,1287,1287,1287,1287,1287,1287,1287,1287,1287,1288,0,0,0,0,
0,0,0,0,0,0,1293,1294,1294,1295,425,0,1286,1287,1287,1288,0,0,1293,1294,1294,1294,1295,0,1286,1287,1287,1287,1287,1287,1287,1287,1287,1287,1287,1287,1287,1287,1287,1288,0,0,1286,1287,1287,1287,1287,1287,1287,1287,1287,1287,1287,1287,1287,1287,1287,1287,1287,1288,0,0,0,0,
0,0,0,0,0,0,1293,1294,1294,1295,482,0,1286,1287,1287,1288,0,0,1293,1294,1294,1294,1295,0,1286,1287,1287,1287,1287,1287,1287,1287,1287,1287,1287,1287,1287,1287,1287,1288,0,0,1343,1344,1344,1344,1344,1344,1344,1287,1287,1287,1287,1344,1344,1344,1344,1344,1344,1345,0,0,0,0,
0,0,0,0,0,0,1293,1294,1294,1294,1238,1230,1287,1287,1287,1288,0,0,1293,1294,1294,1294,1295,0,1286,1287,1287,1287,1287,1287,1287,1287,1287,1287,1287,1287,1287,1287,1287,1288,0,0,0,0,0,0,0,0,0,941,940,940,943,0,0,0,0,0,0,0,0,0,0,0,
0,0,0,0,0,0,1293,1294,1294,1294,1352,1344,1287,1287,1287,1287,1230,1236,1294,1294,1294,1294,1295,0,1286,1287,1287,1287,1287,1287,1287,1287,1287,1287,1287,1287,1287,1287,1287,1288,0,0,0,0,0,0,0,0,0,884,883,883,886,0,0,0,0,0,0,0,0,0,0,0,
0,0,0,0,0,0,1063,1351,1351,1352,0,0,1286,1287,1287,1287,1344,1350,1294,1294,1294,1294,1295,0,1286,1287,1287,1287,1287,1287,1287,1287,1287,1287,1287,1287,1287,1287,1287,1288,0,0,0,0,0,0,0,2147483805,0,884,883,883,886,0,0,0,0,0,569,203,260,0,0,0,
0,0,0,0,0,0,0,0,0,0,0,0,1343,1287,1287,1345,0,0,1350,1351,1351,1351,1352,0,1286,1287,1287,1287,1287,1287,1287,1287,1287,1287,1287,1287,1287,1287,1287,1288,0,0,0,0,0,0,0,0,0,884,883,883,886,0,0,0,0,0,626,0,0,0,0,0,
0,0,0,0,0,0,0,0,0,0,0,0,0,941,943,0,0,0,0,0,0,0,0,0,1286,1287,1287,1287,1287,1287,1287,1287,1287,1287,1287,1287,1287,1287,1287,1288,0,0,0,0,0,0,1229,1230,1230,1230,1230,1230,1230,1230,1231,0,0,1229,1230,1230,1230,1057,1231,0,
0,0,0,0,0,0,0,0,0,0,0,0,0,884,886,0,0,0,0,0,0,0,0,0,1286,1287,1287,1287,1287,1287,1287,1287,1287,1287,1287,1287,1287,1287,1287,1288,0,0,0,0,0,0,1286,1287,1287,1287,1287,1287,1287,1287,1287,1230,1230,1287,1287,1287,1287,1287,1288,0,
0,0,0,0,0,0,0,0,0,0,0,0,0,884,886,0,0,0,0,0,0,0,0,0,1286,1287,1287,1287,1287,1287,1287,1287,1287,1287,1287,1287,1287,1287,1287,1288,0,0,0,0,0,0,1286,1287,1287,1287,1287,1287,1287,1287,1287,1344,1344,1287,1287,1287,1287,1287,1288,0,
0,0,205,0,0,0,205,0,0,0,205,0,0,884,886,0,0,0,0,0,0,0,0,0,1286,1287,1287,1287,1287,1287,1287,1287,1287,1287,1287,1287,1287,1287,1287,1288,0,0,0,0,0,0,1286,1287,1287,1287,1287,1287,1287,1287,1288,0,0,1286,1287,1287,1287,1287,1288,0,
0,1229,1230,1230,1230,1230,1230,1230,1230,1230,1230,1230,1230,1287,1287,1230,1230,1230,1230,1230,1057,1231,0,0,1286,1287,1287,1287,1287,1287,1287,1287,1287,1287,1287,1287,1287,1287,1287,1288,0,0,0,0,0,0,1286,1287,1287,1287,1287,1287,1287,1287,1288,0,0,1286,1287,1287,1287,1287,1288,0,
0,1286,1287,1344,1344,1344,1344,1344,1344,1344,1344,1344,1344,1344,1344,1344,1344,1344,1344,1344,1287,1287,1230,1230,1287,1287,1287,1287,1287,1287,1287,1287,1287,1287,1287,1287,1287,1287,1287,1288,0,0,0,0,0,0,1286,1287,1287,1287,1287,1287,1287,1287,1288,0,0,1286,1287,1287,1287,1287,1288,0,
0,1286,1288,0,0,0,0,0,0,0,0,0,0,0,0,0,0,0,0,0,1286,1287,1344,1344,1287,1287,1287,1287,1287,1287,1287,1287,1287,1287,1287,1287,1287,1287,1287,1288,0,0,0,0,0,0,1286,1287,1287,1287,1287,1287,1287,1287,1288,0,0,1286,1287,1287,1287,1287,1288,0,
0,1286,1288,0,0,0,0,0,0,0,0,0,0,0,0,0,0,0,0,0,1286,1288,0,0,1286,1287,1287,1287,1287,1287,1287,1287,1287,1287,1287,1287,1287,1287,1287,1288,0,0,0,0,0,0,1286,1287,1287,1287,1287,1287,1287,1287,1287,1230,1230,1287,1287,1287,1287,1287,1288,0,
0,1286,1288,0,0,0,0,0,0,0,0,0,0,0,0,0,0,0,0,0,1286,1288,0,0,1343,1344,1344,1344,1344,1344,1344,1344,1344,1344,1344,1344,1344,1344,1344,1345,0,0,0,0,0,0,1286,1287,1287,1287,1287,1287,1287,1287,1287,1344,1344,1287,1287,1287,1287,1287,1288,0,
0,1286,1288,0,0,0,0,0,0,0,0,0,0,0,0,0,0,0,0,0,1286,1288,0,0,0,0,0,0,0,0,0,0,0,0,0,0,0,0,0,0,0,0,0,0,0,0,1343,1287,1344,1344,1344,1344,1344,1344,1345,0,0,1343,1344,1344,1344,1344,1345,0,
0,1286,1288,0,0,0,0,0,0,0,0,0,0,0,0,0,0,0,0,0,1286,1288,0,0,0,0,0,0,0,0,0,0,0,0,0,0,0,0,0,0,0,0,0,0,0,0,0,1000,0,0,0,0,0,0,0,0,0,0,0,0,0,0,0,0,
0,1286,1288,0,0,205,0,0,0,205,0,0,0,205,0,0,0,205,0,0,1286,1288,0,0,0,0,0,0,0,0,0,0,0,0,0,0,0,0,0,0,0,0,0,0,0,0,0,1000,0,0,0,0,0,0,0,0,0,0,0,0,0,0,0,0,
0,1286,1287,1230,1230,1230,1230,1230,1230,1230,1230,1230,1230,1230,1230,1230,1230,1230,1230,1230,1287,1288,0,0,0,0,0,0,0,0,0,0,0,0,0,0,0,0,0,0,0,0,0,0,0,0,0,769,0,0,0,0,0,0,0,0,0,0,0,0,0,0,0,0,
0,1343,1344,1344,1344,1344,1344,1344,1344,1344,1344,1344,1344,1344,1344,1344,1344,1344,1344,1344,1344,1344,712,713,713,713,713,713,713,713,713,713,713,713,713,713,713,713,713,713,713,713,713,713,713,713,713,773,0,0,0,0,0,0,0,0,0,0,0,0,0,0,0,0,
0,0,0,0,0,0,0,0,0,0,0,0,0,0,0,0,0,0,0,0,0,0,0,0,0,0,0,0,0,0,0,0,0,0,0,0,0,0,0,0,0,0,0,0,0,0,0,0,0,0,0,0,0,0,0,0,0,0,0,0,0,0,0,0
</data>
 </layer>
 <layer id="4" name="decoration2" width="64" height="48">
  <data encoding="csv">
0,0,0,0,0,0,0,0,0,0,0,0,0,0,0,0,0,0,0,0,0,0,0,0,0,0,0,0,0,0,0,0,0,0,0,0,0,0,0,0,0,0,0,0,0,0,0,0,0,0,0,0,0,0,0,0,0,0,0,0,0,0,0,0,
0,0,0,0,0,0,0,0,0,0,0,0,0,0,0,0,0,0,0,0,0,0,0,0,0,0,0,0,0,0,0,0,0,0,0,0,0,0,0,0,0,0,0,0,0,0,0,0,0,0,0,0,0,0,0,0,0,0,0,0,0,0,0,0,
0,0,0,0,0,0,0,0,0,0,0,0,0,0,0,0,0,0,0,0,0,0,0,0,0,0,0,0,0,0,0,0,0,0,0,0,0,0,0,0,0,0,0,0,0,0,0,0,0,0,0,0,171,0,0,0,0,0,0,0,0,0,0,0,
0,0,0,0,0,0,0,0,0,0,0,0,0,0,0,0,0,0,0,0,0,0,0,0,0,0,0,0,0,0,0,0,0,0,0,0,0,0,0,0,0,0,0,0,0,0,0,0,0,0,0,0,0,0,0,0,0,0,0,0,0,0,0,0,
0,0,0,0,0,0,0,0,0,0,0,0,0,0,0,0,0,0,0,0,0,0,0,0,0,0,0,0,0,0,0,0,0,0,0,0,0,0,0,0,0,0,0,0,0,0,0,0,0,0,0,0,0,0,0,0,0,0,0,0,0,0,0,0,
0,0,0,0,0,0,0,0,0,0,0,0,0,0,0,0,0,0,0,0,0,0,0,0,0,0,0,0,0,0,0,0,0,0,0,0,0,0,0,0,0,0,0,0,0,0,0,0,0,0,0,0,0,0,0,0,0,0,0,0,0,0,0,0,
0,0,0,0,0,0,0,0,0,0,0,0,0,0,0,0,0,0,0,0,0,0,0,0,0,0,0,0,0,0,0,0,0,0,0,0,0,0,0,0,0,0,0,0,0,0,0,0,0,0,0,0,0,0,0,0,0,0,0,0,0,0,0,0,
0,0,0,0,0,0,0,0,0,0,0,0,0,0,0,0,0,0,0,0,0,0,0,0,0,0,0,0,0,0,0,0,0,0,0,0,0,0,0,0,0,0,0,0,0,0,0,0,0,0,0,0,0,0,0,0,0,0,0,0,0,0,0,0,
0,0,0,0,0,0,0,0,0,0,0,0,0,0,0,0,0,0,0,0,0,0,0,0,0,0,0,0,0,0,0,0,0,0,0,0,0,0,0,0,0,0,0,0,0,0,0,0,0,0,0,0,0,0,0,0,0,0,0,0,0,0,0,0,
0,0,0,0,0,0,0,0,0,0,0,0,0,0,0,0,0,0,0,0,0,0,0,0,0,0,0,0,0,0,0,0,0,0,0,0,0,0,0,0,0,0,0,0,0,0,0,0,0,0,0,0,0,0,0,0,0,0,0,0,0,0,0,0,
0,0,0,0,0,0,0,0,0,0,0,0,0,0,0,0,0,0,0,0,0,0,0,0,0,0,0,0,1168,0,0,0,0,0,0,1168,0,0,0,0,0,0,0,0,0,0,0,0,0,0,0,0,0,0,0,0,0,0,0,0,0,0,0,0,
0,0,0,0,0,0,0,0,0,0,0,0,0,0,0,0,0,0,0,0,0,0,0,0,0,0,0,0,1111,0,0,0,0,0,0,1111,0,0,0,0,0,0,0,0,0,0,0,0,0,0,0,0,0,0,0,0,0,0,0,0,0,0,0,0,
0,0,0,0,0,0,0,0,0,0,0,0,0,0,0,0,0,0,0,0,0,0,0,0,0,0,0,0,1111,0,0,0,0,0,0,1111,0,0,0,0,0,0,0,0,0,0,0,0,0,0,0,0,0,0,0,0,0,0,0,0,0,0,0,0,
0,0,0,0,0,0,0,57,57,0,0,0,0,0,0,0,0,0,0,0,0,0,0,0,0,0,0,0,1111,0,0,0,0,0,0,1111,0,0,0,0,0,0,0,0,0,0,0,0,0,0,0,0,0,0,0,0,0,0,0,0,0,0,0,0,
0,0,0,0,0,0,0,114,114,0,0,0,0,0,0,0,0,0,0,0,0,0,0,0,0,0,0,0,0,0,1612,1613,1613,1614,0,0,0,0,0,0,0,0,0,0,0,0,0,0,0,0,0,0,0,0,0,0,0,0,0,0,0,0,0,0,
0,0,0,0,0,0,0,0,0,0,0,0,0,0,0,0,0,0,0,0,0,0,0,0,0,0,0,0,0,0,1669,1670,1670,1671,0,0,0,0,0,0,0,0,0,0,0,0,0,0,0,0,0,0,1644,1645,1646,0,0,0,0,0,0,0,0,0,
0,0,0,0,0,0,0,1644,1646,0,0,0,0,1612,1614,0,0,0,0,0,0,0,0,0,0,0,0,0,1168,0,1669,1670,1670,1671,0,1168,0,0,0,0,0,0,0,0,0,0,0,0,0,0,0,0,1701,1702,1703,0,0,0,0,0,0,0,0,0,
0,0,0,0,0,0,0,1701,1703,0,0,0,0,1669,1671,0,0,0,0,0,0,0,0,0,0,0,0,0,1111,0,1669,1670,1670,1671,0,1111,0,0,0,0,0,0,0,0,0,0,0,0,0,0,0,0,1758,1759,1760,0,0,0,0,0,0,0,0,0,
0,0,0,0,0,0,0,1701,1703,0,0,0,0,1669,1671,0,0,0,0,0,0,0,0,0,0,0,0,0,1111,0,1669,1670,1670,1671,0,1111,0,0,0,0,0,0,0,0,0,0,0,0,0,0,0,0,0,0,0,0,0,0,0,0,0,0,0,0,
0,0,0,0,0,0,0,1701,1703,0,0,0,0,1669,1671,0,0,0,0,0,0,0,0,0,0,0,0,0,1111,0,1669,1670,1670,1671,0,1111,0,0,0,0,0,0,0,0,0,0,0,0,0,0,0,0,0,0,0,0,0,0,0,0,0,0,0,0,
0,0,0,0,0,0,0,1701,1703,0,0,0,0,1669,1671,0,0,0,0,0,0,0,0,0,0,0,0,0,0,0,1669,1670,1670,1671,0,0,0,0,0,0,0,0,0,57,0,57,0,57,0,0,0,0,0,0,57,0,57,0,57,0,0,0,0,0,
0,0,0,0,0,0,0,1701,1703,0,0,0,0,1669,1671,0,0,0,0,0,0,0,0,0,0,0,0,0,0,0,1669,1670,1670,1671,0,0,0,0,0,0,0,0,0,114,0,114,0,114,0,0,0,0,0,0,114,0,114,0,114,0,0,0,0,0,
0,0,0,0,0,0,0,1701,1703,0,0,0,0,1669,1671,0,0,0,0,0,0,0,0,0,0,0,0,0,1168,0,1669,1670,1670,1671,0,1168,0,0,0,0,0,0,0,0,0,0,0,0,0,0,0,0,0,0,0,0,0,0,0,0,0,0,0,0,
0,0,0,0,0,0,0,1701,1703,0,0,0,0,1669,1671,0,0,0,0,0,0,0,0,0,0,0,0,0,1111,0,1669,1670,1670,1671,0,1111,0,0,0,0,0,0,0,1612,1613,1613,1613,1613,1613,1613,1613,1613,1613,1613,1613,1613,1613,1613,1614,0,0,0,0,0,
0,0,0,0,0,0,0,1701,1703,0,0,0,0,1669,1671,0,0,0,0,0,0,0,0,0,0,0,0,0,1111,0,1669,1670,1670,1671,0,1111,0,0,0,0,0,0,0,1669,1670,1670,1670,1670,1670,1670,1670,1670,1670,1670,1670,1670,1670,1670,1671,0,0,0,0,0,
0,0,0,0,0,0,0,1701,1703,0,0,0,0,1669,1671,0,0,0,0,0,0,0,0,0,0,0,0,0,1111,0,1669,1670,1670,1671,0,1111,0,0,0,0,0,0,0,1669,1670,1670,1670,1670,1670,1670,1670,1670,1670,1670,1670,1670,1670,1670,1671,0,0,0,0,0,
0,0,0,0,0,0,0,1701,1703,0,0,0,0,1669,1671,0,0,0,0,0,0,0,0,0,0,0,0,0,0,0,1669,1670,1670,1671,0,0,0,0,0,0,0,0,0,1669,1670,1670,1670,1670,1670,1670,1670,1670,1670,1670,1670,1670,1670,1670,1671,0,0,0,0,0,
0,0,0,0,0,0,0,1701,1703,0,0,0,0,1669,1671,0,0,0,0,0,0,0,0,0,0,0,0,0,0,0,1669,1670,1670,1671,0,0,0,0,0,0,0,0,0,1726,1727,1727,1727,1727,1727,1727,1727,1727,1727,1727,1727,1727,1727,1727,1728,0,0,0,0,0,
0,0,0,0,0,0,0,1701,1703,0,0,0,0,1669,1671,0,0,0,0,0,0,0,0,0,0,0,0,0,1168,0,1669,1670,1670,1671,0,1168,0,0,0,0,0,0,0,0,0,0,0,0,0,0,0,0,0,0,0,0,0,0,0,0,0,0,0,0,
0,0,0,0,0,0,0,1701,1703,0,0,0,0,1669,1671,0,0,0,0,0,0,0,0,0,0,0,0,0,1111,0,1669,1670,1670,1671,0,1111,0,0,0,0,0,0,0,0,0,0,0,0,0,0,0,0,0,0,0,0,0,0,0,0,0,0,0,0,
0,0,0,0,0,0,0,1758,1760,0,0,0,0,1669,1671,0,0,0,0,0,0,0,0,0,0,0,0,0,1111,0,1669,1670,1670,1671,0,1111,0,0,0,0,0,0,0,0,0,0,0,0,0,0,0,0,0,0,0,0,0,0,0,0,0,0,0,0,
0,0,0,0,0,0,0,0,0,0,0,0,0,1726,1728,0,0,0,0,0,0,0,0,0,0,0,0,0,1111,0,1669,1670,1670,1671,0,1111,0,0,0,0,0,0,0,0,0,0,0,0,0,0,0,0,0,0,0,0,0,0,0,0,0,0,0,0,
0,0,0,0,0,0,0,0,0,0,0,0,0,0,0,0,0,0,0,0,0,0,0,0,0,0,0,0,0,0,1669,1670,1670,1671,0,0,0,0,0,0,0,0,0,0,0,0,0,0,0,0,0,0,0,0,0,0,0,0,0,0,0,0,0,0,
0,0,0,0,0,0,0,0,0,0,0,0,0,0,0,0,0,0,0,0,0,0,0,0,0,0,0,0,0,0,1669,1670,1670,1671,0,0,0,0,0,0,0,0,0,0,0,0,0,0,0,0,0,0,0,0,0,0,0,0,0,0,0,0,0,0,
0,0,0,0,0,0,0,0,0,0,0,0,0,0,0,0,0,0,0,0,0,0,0,0,0,0,0,0,1168,0,1669,1670,1670,1671,0,1168,0,0,0,0,0,0,0,0,0,0,0,0,0,0,0,0,0,0,0,0,0,0,0,0,0,0,0,0,
0,0,0,0,0,0,0,0,0,0,0,0,0,0,0,0,0,0,0,0,0,0,0,0,0,0,0,0,1111,0,1669,1670,1670,1671,0,1111,0,0,0,0,0,0,0,0,0,0,0,0,0,0,0,0,0,0,0,0,0,0,0,0,0,0,0,0,
0,0,0,0,0,0,0,0,0,0,0,0,0,0,0,0,0,0,0,0,0,0,0,0,0,0,0,0,1111,0,1669,1670,1670,1671,0,1111,0,0,0,0,0,0,0,0,0,0,0,0,0,0,0,0,0,0,0,0,0,0,0,0,413,0,0,0,
0,0,0,0,0,0,0,0,0,0,0,0,0,0,0,0,0,0,0,0,0,0,0,0,0,0,0,0,1111,0,1669,1670,1670,1671,0,1111,0,0,0,0,0,0,0,0,0,0,0,0,0,0,0,0,0,0,0,0,0,0,0,0,0,0,0,0,
0,0,0,0,0,0,0,0,0,0,0,0,0,0,0,0,0,0,0,0,0,0,0,0,0,0,0,0,0,0,1669,1670,1670,1671,0,0,0,0,0,0,0,0,0,0,0,0,0,0,0,0,0,0,0,0,0,0,0,414,0,0,0,0,0,0,
0,0,0,0,0,0,0,0,0,0,0,0,0,0,0,0,0,0,0,0,0,0,0,0,0,0,0,0,0,0,1669,1670,1670,1671,0,0,0,0,0,0,0,0,0,0,0,0,0,0,0,0,0,0,0,0,0,0,0,414,0,0,0,0,0,0,
0,0,0,0,0,0,0,0,0,0,0,0,0,0,0,0,0,0,0,0,0,0,0,0,0,0,0,0,0,0,1726,1727,1727,1728,0,0,0,0,0,0,0,0,0,0,0,0,0,0,0,0,0,0,0,0,0,0,0,0,0,0,0,0,0,0,
0,0,0,0,0,0,0,0,0,0,0,0,0,0,0,0,0,0,0,0,0,0,0,0,0,0,0,0,0,0,0,0,0,0,0,0,0,0,0,0,0,0,0,0,0,0,0,0,0,0,0,0,0,0,0,0,0,0,0,0,0,0,0,0,
0,0,0,0,0,0,0,0,0,0,0,0,0,0,0,0,0,0,0,0,0,0,0,0,0,0,0,0,0,0,0,0,0,0,0,0,0,0,0,0,0,0,0,0,0,0,0,0,0,0,0,0,0,0,0,0,0,0,0,0,0,0,0,0,
0,0,0,0,0,0,0,0,0,0,0,0,0,0,0,0,0,0,0,0,0,0,0,0,0,0,0,0,0,0,0,0,0,0,0,0,0,0,0,0,0,0,0,0,0,0,0,0,0,0,0,0,0,0,0,0,0,0,0,0,0,0,0,0,
0,0,0,0,0,0,0,0,0,0,0,0,0,0,0,0,0,0,0,0,0,0,0,0,0,0,0,0,0,0,0,0,0,0,0,0,0,0,0,0,0,0,0,0,0,0,0,0,0,0,0,0,0,0,0,0,0,0,0,0,0,0,0,0,
0,0,0,0,0,0,0,0,0,0,0,0,0,0,0,0,0,0,0,0,0,0,0,0,0,0,0,0,0,0,0,0,0,0,0,0,0,0,0,0,0,0,0,0,0,0,0,0,0,0,0,0,0,0,0,0,0,0,0,0,0,0,0,0,
0,0,0,0,0,0,0,0,0,0,0,0,0,0,0,0,0,0,0,0,0,0,0,0,0,0,0,0,0,0,0,0,0,0,0,0,0,0,0,0,0,0,0,0,0,0,0,0,0,0,0,0,0,0,0,0,0,0,0,0,0,0,0,0,
0,0,0,0,0,0,0,0,0,0,0,0,0,0,0,0,0,0,0,0,0,0,0,0,0,0,0,0,0,0,0,0,0,0,0,0,0,0,0,0,0,0,0,0,0,0,0,0,0,0,0,0,0,0,0,0,0,0,0,0,0,0,0,0
</data>
 </layer>
 <layer id="3" name="collidable2" width="64" height="48">
  <data encoding="csv">
0,0,0,0,0,0,0,0,0,0,0,0,0,0,0,0,0,0,0,0,0,0,0,0,0,0,0,0,0,0,0,0,0,0,0,0,0,0,0,0,0,0,0,0,0,0,0,0,0,0,0,0,0,0,0,0,0,0,0,0,0,0,0,0,
0,0,0,0,0,0,0,0,0,0,0,0,0,0,0,0,0,0,0,0,0,0,0,0,0,0,0,0,0,0,0,0,0,0,0,0,0,0,0,0,0,0,0,0,0,0,0,0,0,0,0,0,0,0,0,0,0,0,0,0,0,0,0,0,
0,0,0,0,0,0,0,0,0,0,0,0,0,0,0,0,0,0,0,0,0,0,0,0,0,0,0,0,0,0,0,0,0,0,0,0,0,0,0,0,0,0,0,0,0,0,0,0,0,0,0,0,0,201,0,0,0,0,0,0,0,0,0,0,
0,0,0,0,0,0,0,0,0,0,0,0,0,0,0,0,0,0,0,0,0,0,0,0,0,0,0,0,0,0,0,0,0,0,0,0,0,0,0,0,0,0,0,0,0,0,0,0,0,0,0,367,0,258,187,0,0,0,0,0,0,0,0,0,
0,0,0,0,0,0,0,0,0,0,299,242,242,356,0,0,0,671,0,0,0,0,0,0,0,0,0,0,0,0,0,0,0,0,0,0,0,0,0,0,0,0,0,0,0,0,0,0,0,0,0,0,0,0,0,0,0,0,0,0,0,0,0,0,
0,0,0,0,0,0,0,0,0,0,0,0,0,0,0,0,0,0,0,0,0,0,0,0,0,0,0,0,0,0,0,0,0,0,0,0,0,0,0,0,0,0,0,0,0,0,0,0,0,0,0,0,0,0,0,0,0,0,0,0,0,0,0,0,
0,0,0,0,0,0,0,0,0,0,0,0,0,0,0,0,0,0,0,0,0,0,0,0,0,0,0,0,0,0,0,0,0,0,0,0,0,0,0,0,0,0,0,0,0,0,0,0,0,0,0,0,0,0,0,0,0,0,0,0,0,0,0,0,
0,0,0,0,0,0,0,0,0,0,0,0,299,242,242,356,614,414,614,0,0,0,0,0,0,0,0,0,0,0,0,0,0,0,0,0,0,0,0,0,0,0,0,0,0,0,0,0,0,0,0,0,0,0,0,0,0,0,0,0,0,0,0,0,
0,0,0,0,0,0,0,0,0,0,0,0,0,0,299,242,242,356,670,0,0,0,0,0,0,0,0,0,0,0,0,0,0,0,0,0,0,0,0,0,0,0,0,0,0,0,0,0,0,0,0,0,0,0,0,0,0,0,0,0,0,0,0,0,
0,0,0,0,0,0,0,0,0,0,0,0,0,0,0,616,671,616,671,0,0,0,0,0,0,0,0,0,0,0,0,0,0,0,0,0,0,0,0,0,0,0,0,0,0,0,0,0,0,0,0,0,0,0,0,0,0,0,0,0,0,0,0,0,
0,0,0,0,0,0,0,0,0,0,0,0,0,0,0,669,670,614,616,0,0,0,0,0,0,0,0,0,0,0,0,0,0,0,0,0,0,0,0,0,0,0,0,0,0,0,0,0,0,174,176,0,0,0,0,0,0,0,0,0,0,0,0,0,
0,0,0,0,0,0,0,0,0,0,0,0,0,0,0,0,0,0,0,0,0,0,0,0,0,0,0,0,0,0,0,0,0,0,0,0,0,0,0,0,0,0,0,0,200,202,0,0,0,231,233,0,0,0,0,0,0,0,0,0,0,0,0,0,
0,0,0,0,0,0,0,0,0,0,0,0,0,0,0,0,0,0,0,0,0,0,0,0,0,0,0,0,0,0,0,0,0,0,0,0,0,0,0,0,0,0,0,0,257,259,0,0,0,231,233,0,0,0,0,0,0,0,0,0,0,0,0,0,
0,0,0,0,0,0,0,0,0,0,0,0,0,0,0,0,0,0,0,0,0,0,0,0,0,0,0,0,0,0,0,0,0,0,0,0,0,0,0,0,0,0,0,0,0,0,0,0,0,288,290,0,0,0,0,0,0,0,0,0,0,0,0,0,
0,0,0,0,0,0,0,0,0,0,0,0,0,0,0,0,0,0,0,0,0,0,0,0,0,0,0,0,1169,0,0,0,0,0,0,1169,0,0,0,0,0,0,0,0,0,0,0,0,0,0,0,0,0,0,0,0,0,0,0,0,0,0,0,0,
0,0,0,0,0,0,130,0,0,0,0,0,0,0,0,0,0,0,0,0,0,0,0,0,0,0,0,0,0,0,0,0,0,0,0,0,0,0,0,0,0,0,0,253,244,253,0,0,0,0,0,0,0,134,0,0,0,0,0,0,0,0,0,0,
0,0,0,0,0,0,139,0,0,0,0,0,0,0,0,0,0,0,0,0,0,0,0,0,0,0,0,0,0,0,0,0,0,0,0,0,0,0,0,0,0,0,0,0,0,0,0,0,0,0,0,0,136,365,137,0,0,0,0,0,0,0,0,0,
0,0,0,0,0,0,0,0,0,0,0,0,0,0,0,0,0,0,0,0,0,200,200,0,0,0,0,0,0,0,0,0,0,0,0,0,0,0,0,0,0,0,0,0,0,0,0,0,0,0,0,0,0,135,0,0,0,0,0,0,0,0,0,0,
0,0,0,0,0,0,130,0,0,138,0,0,0,0,0,0,0,0,0,0,0,257,257,0,0,0,0,0,0,0,0,0,0,0,0,0,0,0,0,0,0,0,0,0,0,0,0,0,0,0,0,0,0,0,0,0,0,0,0,0,0,0,0,0,
0,0,0,0,0,0,139,0,0,73,0,0,0,0,0,0,0,0,0,0,0,0,0,0,0,0,0,0,0,0,0,0,0,0,0,0,0,0,0,0,0,0,0,0,0,0,0,0,0,0,0,0,0,0,0,0,0,0,0,0,0,0,0,0,
0,0,0,0,0,0,0,0,0,0,0,0,0,0,0,0,0,0,0,0,0,0,0,0,0,0,0,0,1169,0,0,0,0,0,0,1169,0,0,0,0,0,0,0,0,0,0,0,0,0,0,0,0,0,0,0,0,0,0,0,0,0,0,0,0,
0,0,0,0,0,0,130,0,0,138,0,0,0,0,0,0,0,0,0,0,0,0,0,0,0,0,0,0,0,0,0,0,0,0,0,0,0,0,0,0,0,0,0,0,0,0,0,0,0,0,0,0,0,0,0,0,0,0,0,0,0,0,0,0,
0,0,0,0,0,0,139,0,0,72,0,0,0,0,0,0,0,0,731,733,734,0,0,0,0,0,0,0,0,0,0,0,0,0,0,0,0,0,0,0,0,0,0,0,0,0,0,0,0,0,0,0,0,0,0,0,0,0,0,0,0,0,0,0,
0,0,0,0,0,0,0,0,0,0,0,0,0,0,0,0,0,0,307,0,0,0,0,0,0,0,0,0,0,0,0,0,0,0,0,0,0,0,0,0,0,0,0,0,0,0,0,0,0,0,0,0,0,0,0,0,0,0,0,0,0,0,0,0,
0,0,0,0,0,0,129,0,0,138,0,0,0,0,0,0,0,0,0,0,0,0,0,0,0,0,0,0,0,0,0,0,0,0,0,0,0,0,0,0,0,0,0,0,134,134,134,134,134,134,134,134,134,134,134,134,134,0,0,0,0,0,0,0,
0,0,0,0,0,0,139,0,0,72,0,0,0,0,0,0,0,0,0,0,731,733,734,0,0,0,0,0,0,0,0,0,0,0,0,0,0,0,0,0,0,0,0,0,362,364,364,364,364,364,364,364,364,364,364,364,363,137,0,0,0,0,0,0,
0,0,0,0,0,0,0,0,0,0,0,0,0,0,0,0,0,0,0,0,0,0,0,0,0,0,0,0,1169,0,0,0,0,0,0,1169,0,0,0,0,0,0,0,0,135,135,135,135,135,135,135,135,135,135,135,135,135,0,0,0,0,0,0,0,
0,0,0,0,0,0,129,0,0,138,0,0,0,0,0,0,0,0,0,0,0,0,0,0,0,0,0,0,0,0,0,0,0,0,0,0,0,0,0,0,0,0,0,0,0,0,0,0,0,0,0,0,0,0,0,0,0,0,0,0,0,0,0,0,
0,0,0,0,0,0,139,0,0,73,0,0,0,0,0,0,0,0,731,733,734,0,0,0,0,0,0,0,0,0,0,0,0,0,0,0,0,0,0,0,0,0,0,0,0,0,0,0,0,0,0,0,0,0,0,0,0,0,0,0,0,0,0,0,
0,0,0,0,0,0,0,0,0,0,0,0,0,0,0,0,0,0,0,0,0,0,0,0,0,0,0,0,0,0,0,0,0,0,0,0,0,0,0,0,0,0,0,0,0,0,0,0,0,0,0,0,0,0,0,0,0,0,0,0,0,0,0,0,
0,0,0,0,0,0,0,0,0,0,0,0,0,0,0,0,0,0,0,0,0,0,0,0,0,0,0,0,0,0,0,0,0,0,0,0,0,0,0,0,0,0,0,0,0,0,0,0,0,0,0,0,0,0,0,0,0,0,0,0,0,0,0,0,
0,0,0,0,0,0,0,0,0,0,0,0,0,0,0,0,0,0,0,0,0,365,251,0,0,0,0,0,0,0,0,0,0,0,0,0,0,0,0,0,0,0,0,0,0,0,0,0,0,0,0,0,0,0,0,0,0,0,0,0,0,0,0,0,
0,0,0,0,0,0,0,0,0,0,0,0,0,0,0,0,0,0,0,0,0,249,0,0,0,0,0,0,1169,0,0,0,0,0,0,1169,0,0,0,0,0,0,0,0,0,0,0,0,0,0,0,0,0,0,0,0,0,0,0,0,0,0,0,0,
0,0,0,0,0,0,0,0,0,0,0,0,0,0,0,0,0,0,0,0,0,0,0,0,0,0,0,0,0,0,0,0,0,0,0,0,0,0,0,0,0,0,0,0,0,0,0,0,0,0,0,0,0,0,0,0,0,0,0,0,0,0,413,0,
0,0,0,0,0,0,0,0,0,0,0,0,0,0,0,0,0,0,0,0,0,0,0,0,0,0,0,0,0,0,0,0,0,0,0,0,0,0,0,0,0,0,0,0,0,0,0,0,0,0,0,0,0,0,0,0,0,0,0,0,0,0,0,0,
0,0,0,0,0,0,0,0,0,0,0,0,0,0,0,0,0,0,0,0,0,0,0,0,0,0,0,0,0,0,0,0,0,0,0,0,0,0,0,0,0,0,0,0,0,0,0,0,0,0,0,0,415,0,0,0,0,0,0,0,0,0,0,0,
0,0,0,0,0,0,0,0,0,0,0,0,0,0,0,0,0,0,0,0,0,0,0,0,0,0,0,0,0,0,0,0,0,0,0,0,0,0,0,0,0,0,0,0,0,0,0,0,30,29,31,31,30,0,0,0,0,358,359,360,0,0,0,0,
0,0,0,0,0,0,0,0,0,0,0,0,0,0,0,0,0,0,0,0,0,0,0,0,0,0,0,0,0,0,0,0,0,0,0,0,0,0,0,0,0,0,0,0,0,0,0,0,0,0,0,0,0,0,0,0,0,414,0,0,0,0,0,0,
0,0,0,0,0,0,0,0,0,0,0,0,0,0,0,0,0,0,0,0,0,0,0,0,0,0,0,0,1169,0,0,0,0,0,0,1169,0,0,0,0,0,0,0,0,0,0,0,0,0,0,0,0,0,0,0,0,0,0,0,0,0,0,0,0,
0,0,0,0,0,0,0,0,0,0,0,0,0,0,0,0,0,0,0,0,0,0,0,0,0,0,0,0,0,0,0,0,0,0,0,0,0,0,0,0,0,0,0,0,0,0,0,0,0,365,357,365,0,0,0,0,0,0,0,0,0,0,0,0,
0,0,0,0,0,0,0,0,0,0,0,0,0,0,0,0,0,0,0,0,0,0,0,0,0,0,0,0,0,0,0,0,0,0,0,0,0,0,0,0,0,0,0,0,0,0,0,0,0,357,357,415,0,0,0,0,0,0,0,298,355,0,0,0,
0,0,0,0,0,0,0,0,0,0,0,0,0,0,0,0,0,0,0,0,0,0,0,0,0,0,0,0,0,0,0,0,0,0,0,0,0,0,0,0,0,0,0,0,0,0,0,0,0,0,0,0,0,0,0,0,0,0,0,0,0,0,0,0,
0,0,0,0,0,0,0,0,0,0,0,0,0,0,0,0,0,0,0,0,0,0,0,0,0,0,0,0,0,0,0,0,0,0,0,0,0,0,0,0,0,0,0,0,0,0,0,0,0,0,0,0,0,0,0,0,0,0,0,0,0,0,357,0,
0,0,0,0,0,0,0,0,0,0,0,0,0,0,0,0,0,0,0,0,0,0,0,0,0,0,0,0,0,0,0,0,0,0,0,0,0,0,0,0,0,0,0,0,0,0,0,0,0,0,0,0,0,0,0,0,0,0,0,0,0,0,0,0,
0,0,0,0,0,0,0,0,0,0,0,0,0,0,0,0,0,0,0,0,0,0,0,0,0,0,0,0,0,0,0,0,0,0,0,0,0,0,0,0,0,0,0,0,0,0,0,0,0,0,0,0,0,0,0,0,0,0,0,0,0,0,0,0,
0,0,0,0,0,0,0,0,0,0,0,0,0,0,0,0,0,0,0,0,0,0,0,0,0,0,0,0,0,0,0,0,0,0,0,0,0,0,0,0,0,0,0,0,0,0,0,0,0,0,0,0,0,0,0,0,0,0,0,0,0,0,0,0,
0,0,0,0,0,0,0,0,0,0,0,0,0,0,0,0,0,0,0,0,0,0,0,0,0,0,0,0,0,0,0,0,0,0,0,0,0,0,0,0,0,0,0,0,0,0,0,0,0,0,0,0,0,0,0,0,0,0,0,0,0,0,0,0,
0,0,0,0,0,0,0,0,0,0,0,0,0,0,0,0,0,0,0,0,0,0,0,0,0,0,0,0,0,0,0,0,0,0,0,0,0,0,0,0,0,0,0,0,0,0,0,0,0,0,0,0,0,0,0,0,0,0,0,0,0,0,0,0
</data>
 </layer>
</map>
